;FLAVOR:UltiGCode
;TIME:2455
;MATERIAL:4112
;MATERIAL2:0
;NOZZLE_DIAMETER:0.4
;MINX:100.566
;MINY:89.812
;MINZ:0.27
;MAXX:128.415
;MAXY:118.951
;MAXZ:59.97
;Generated with Cura_SteamEngine 5.3.0
M82 ;absolute extrusion mode
G0 F3000 Y50 ;avoid prime blob
G92 E0
G92 E0
G10
;LAYER_COUNT:399
;LAYER:0
M107
G0 F9000 X104.871 Y93.531 Z0.27
;TYPE:SKIRT
G11
G1 F1800 X106.643 Y92.148 E0.24276
G1 X108.635 Y90.96 E0.49325
G1 X111.054 Y90.103 E0.77042
G1 X112.811 Y89.812 E0.96276
G1 X116.19 Y89.812 E1.32769
G1 X117.985 Y90.11 E1.5242
G1 X120.276 Y90.97 E1.78849
G1 X122.316 Y92.06 E2.03829
G1 X124.561 Y94.015 E2.3598
G1 X125.72 Y95.336 E2.54959
G1 X127.015 Y97.473 E2.81946
G1 X127.832 Y99.711 E3.07676
G1 X128.338 Y101.913 E3.32078
G1 X128.415 Y104.34 E3.58302
G1 X127.949 Y107.088 E3.88405
G1 X127.406 Y108.865 E4.08472
G1 X126.926 Y109.796 E4.19785
G1 X126.889 Y110.707 E4.29632
G1 X125.471 Y114.332 E4.7167
G1 X123.131 Y116.509 E5.06188
G1 X118.707 Y118.514 E5.58645
G1 X116.804 Y118.951 E5.79732
G1 X114.625 Y118.704 E6.03416
G1 X111.907 Y117.629 E6.34983
G1 X111.406 Y117.141 E6.42537
G1 X110.173 Y116.808 E6.5633
G1 X107.889 Y115.879 E6.8296
G1 X105.837 Y114.508 E7.09613
G1 X104.253 Y112.992 E7.33292
G1 X102.739 Y111.083 E7.59606
G1 X101.586 Y108.857 E7.86681
G1 X100.975 Y106.776 E8.10104
G1 X100.566 Y104.275 E8.37474
G1 X100.662 Y102.314 E8.58678
G1 X101.125 Y99.652 E8.87859
G1 X102.026 Y97.389 E9.14166
G1 X103.3 Y95.313 E9.40472
G1 X104.871 Y93.531 E9.66128
G0 F9000 X105.147 Y93.824
G1 F1800 X106.848 Y92.492 E9.89461
G1 X108.808 Y91.323 E10.14108
G1 X111.153 Y90.492 E10.40978
G1 X112.876 Y90.207 E10.59839
G1 X116.124 Y90.207 E10.94917
G1 X117.88 Y90.499 E11.14142
G1 X120.135 Y91.345 E11.40154
G1 X122.09 Y92.393 E11.6411
G1 X124.26 Y94.279 E11.95161
G1 X125.398 Y95.576 E12.13796
G1 X126.652 Y97.645 E12.39925
G1 X127.456 Y99.848 E12.65252
G1 X127.939 Y101.964 E12.88693
G1 X128.014 Y104.315 E13.14097
G1 X127.566 Y106.971 E13.43187
G1 X127.033 Y108.715 E13.62882
G1 X126.53 Y109.691 E13.7474
G1 X126.492 Y110.623 E13.84814
G1 X125.131 Y114.103 E14.2517
G1 X122.906 Y116.172 E14.57984
G1 X118.581 Y118.132 E15.09267
G1 X116.779 Y118.546 E15.29235
G1 X114.724 Y118.313 E15.51571
G1 X112.054 Y117.257 E15.82581
G1 X111.623 Y116.785 E15.89484
G1 X110.324 Y116.437 E16.04008
G1 X108.076 Y115.523 E16.30216
G1 X106.089 Y114.195 E16.56028
G1 X104.53 Y112.703 E16.79333
G1 X103.076 Y110.864 E17.04652
G1 X101.96 Y108.709 E17.30862
G1 X101.37 Y106.711 E17.53361
G1 X100.968 Y104.253 E17.8026
G1 X101.062 Y102.334 E18.0101
G1 X101.512 Y99.763 E18.29199
G1 X102.386 Y97.567 E18.54725
G1 X103.622 Y95.553 E18.80246
G1 X105.147 Y93.824 E19.05145
G0 F9000 X105.423 Y94.116
G1 F1800 X107.095 Y92.807 E19.28078
G1 X108.978 Y91.687 E19.5174
G1 X111.252 Y90.881 E19.77796
G1 X112.941 Y90.602 E19.96285
G1 X116.058 Y90.602 E20.29948
G1 X117.777 Y90.888 E20.48769
G1 X119.946 Y91.698 E20.73774
G1 X121.864 Y92.726 E20.97276
G1 X123.959 Y94.543 E21.27227
G1 X125.076 Y95.816 E21.45517
G1 X126.289 Y97.817 E21.70789
G1 X127.08 Y99.985 E21.95713
G1 X127.54 Y102.013 E22.18172
G1 X127.613 Y104.291 E22.42787
G1 X127.183 Y106.854 E22.70854
G1 X126.66 Y108.565 E22.90177
G1 X126.134 Y109.586 E23.02581
G1 X126.095 Y110.542 E23.12914
G1 X124.792 Y113.872 E23.51533
G1 X122.681 Y115.835 E23.82666
G1 X118.454 Y117.751 E24.32788
G1 X116.755 Y118.141 E24.51615
G1 X114.823 Y117.922 E24.72614
G1 X112.287 Y116.919 E25.02067
G1 X111.838 Y116.428 E25.09253
G1 X110.475 Y116.066 E25.24484
G1 X108.263 Y115.167 E25.50271
G1 X106.341 Y113.882 E25.7524
G1 X104.807 Y112.414 E25.98172
G1 X103.413 Y110.645 E26.22496
G1 X102.334 Y108.561 E26.47841
G1 X101.754 Y106.598 E26.69947
G1 X101.37 Y104.232 E26.95834
G1 X101.462 Y102.354 E27.16141
G1 X101.899 Y99.874 E27.43338
G1 X102.746 Y97.745 E27.68084
G1 X103.944 Y95.793 E27.92819
G1 X105.423 Y94.116 E28.16968
G0 F9000 X105.699 Y94.408
G1 F1800 X107.3 Y93.151 E28.38951
G1 X109.15 Y92.05 E28.62202
G1 X111.351 Y91.27 E28.87421
G1 X113.006 Y90.997 E29.05537
G1 X115.992 Y90.997 E29.37786
G1 X117.676 Y91.277 E29.56223
G1 X119.757 Y92.051 E29.80202
G1 X121.638 Y93.059 E30.0325
G1 X123.658 Y94.807 E30.321
G1 X124.754 Y96.056 E30.50046
G1 X125.926 Y97.989 E30.7446
G1 X126.704 Y100.122 E30.98981
G1 X127.141 Y102.062 E31.20458
G1 X127.212 Y104.263 E31.44241
G1 X126.8 Y106.737 E31.71328
G1 X126.287 Y108.415 E31.90279
G1 X125.717 Y109.522 E32.03726
G1 X125.73 Y109.667 E32.05298
G1 X125.698 Y110.458 E32.13848
G1 X124.452 Y113.643 E32.50785
G1 X122.456 Y115.498 E32.80213
G1 X118.328 Y117.369 E33.29161
G1 X116.73 Y117.736 E33.46869
G1 X114.922 Y117.531 E33.66521
G1 X112.521 Y116.582 E33.94403
G1 X112.055 Y116.071 E34.01872
G1 X110.578 Y115.679 E34.18376
G1 X108.454 Y114.813 E34.43149
G1 X106.593 Y113.569 E34.67325
G1 X105.084 Y112.125 E34.89881
G1 X103.75 Y110.425 E35.13219
G1 X102.708 Y108.413 E35.3769
G1 X102.138 Y106.485 E35.59403
G1 X101.772 Y104.211 E35.84279
G1 X101.862 Y102.374 E36.04142
G1 X102.286 Y99.985 E36.30346
G1 X103.106 Y97.923 E36.54312
G1 X104.266 Y96.033 E36.78262
G1 X105.699 Y94.408 E37.01661
G0 F9000 X105.975 Y94.7
G1 F1800 X107.547 Y93.466 E37.23245
G1 X109.321 Y92.413 E37.45525
G1 X111.448 Y91.66 E37.69894
G1 X113.071 Y91.392 E37.8766
G1 X115.926 Y91.392 E38.18494
G1 X117.575 Y91.666 E38.36547
G1 X119.568 Y92.404 E38.595
G1 X121.412 Y93.392 E38.82093
G1 X123.357 Y95.071 E39.09843
G1 X124.432 Y96.296 E39.27445
G1 X125.563 Y98.161 E39.51002
G1 X126.328 Y100.259 E39.75119
G1 X126.742 Y102.11 E39.95604
G1 X126.811 Y104.236 E40.18577
G1 X126.417 Y106.62 E40.44673
G1 X125.914 Y108.265 E40.63251
G1 X125.304 Y109.45 E40.77646
G1 X125.33 Y109.651 E40.79834
G1 X125.301 Y110.377 E40.87681
G1 X124.113 Y113.412 E41.22881
G1 X122.231 Y115.161 E41.50629
G1 X118.202 Y116.987 E41.98402
G1 X116.705 Y117.331 E42.14991
G1 X115.021 Y117.14 E42.33295
G1 X112.754 Y116.244 E42.59622
G1 X112.27 Y115.714 E42.67373
G1 X110.681 Y115.292 E42.85129
G1 X108.645 Y114.459 E43.08887
G1 X106.845 Y113.256 E43.32269
G1 X105.399 Y111.878 E43.53842
G1 X104.087 Y110.206 E43.76795
G1 X103.08 Y108.262 E44.0044
G1 X102.533 Y106.421 E44.21182
G1 X102.174 Y104.19 E44.45587
G1 X102.262 Y102.394 E44.65007
G1 X102.673 Y100.096 E44.90219
G1 X103.466 Y98.101 E45.13405
G1 X104.588 Y96.273 E45.36569
G1 X105.975 Y94.7 E45.59219
G0 F9000 X106.251 Y94.992
G1 F1800 X107.794 Y93.781 E45.80402
G1 X109.491 Y92.777 E46.01697
G1 X111.547 Y92.049 E46.25253
G1 X113.136 Y91.787 E46.42646
G1 X115.861 Y91.787 E46.72076
G1 X117.476 Y92.055 E46.89757
G1 X119.379 Y92.757 E47.11663
G1 X121.186 Y93.725 E47.33802
G1 X123.056 Y95.335 E47.60452
G1 X124.11 Y96.536 E47.7771
G1 X125.2 Y98.333 E48.00408
G1 X125.952 Y100.396 E48.24123
G1 X126.343 Y102.157 E48.43605
G1 X126.41 Y104.209 E48.65778
G1 X126.022 Y106.555 E48.91459
G1 X125.543 Y108.111 E49.09042
G1 X124.886 Y109.387 E49.24542
G1 X124.93 Y109.635 E49.27263
G1 X124.904 Y110.296 E49.34407
G1 X123.774 Y113.181 E49.6787
G1 X122.006 Y114.824 E49.93936
G1 X118.075 Y116.606 E50.4055
G1 X116.681 Y116.926 E50.55996
G1 X115.12 Y116.749 E50.72963
G1 X112.987 Y115.906 E50.97733
G1 X112.485 Y115.357 E51.05768
G1 X110.784 Y114.905 E51.24776
G1 X108.835 Y114.104 E51.47534
G1 X107.097 Y112.943 E51.70107
G1 X105.675 Y111.588 E51.9132
G1 X104.425 Y109.99 E52.13231
G1 X103.453 Y108.112 E52.36069
G1 X102.928 Y106.357 E52.55853
G1 X102.576 Y104.169 E52.79788
G1 X102.662 Y102.414 E52.98764
G1 X103.06 Y100.206 E53.22995
G1 X103.826 Y98.279 E53.45391
G1 X104.91 Y96.513 E53.6777
G1 X106.251 Y94.992 E53.89669
G0 F9000 X106.527 Y95.284
G1 F1800 X108.041 Y94.096 E54.10454
G1 X109.664 Y93.14 E54.30797
G1 X111.644 Y92.439 E54.53481
G1 X113.201 Y92.182 E54.70525
G1 X115.796 Y92.182 E54.98551
G1 X117.377 Y92.444 E55.15858
G1 X119.19 Y93.11 E55.36718
G1 X120.96 Y94.058 E55.58403
G1 X122.755 Y95.599 E55.83953
G1 X123.788 Y96.776 E56.00866
G1 X124.837 Y98.505 E56.22707
G1 X125.561 Y100.483 E56.45456
G1 X125.944 Y102.209 E56.6455
G1 X126.009 Y104.182 E56.8587
G1 X125.627 Y106.49 E57.11135
G1 X125.171 Y107.958 E57.27737
G1 X124.462 Y109.335 E57.44464
G1 X124.53 Y109.62 E57.47629
G1 X124.507 Y110.215 E57.54059
G1 X123.435 Y112.95 E57.85785
G1 X121.781 Y114.487 E58.10171
G1 X117.949 Y116.224 E58.5561
G1 X116.656 Y116.521 E58.69938
G1 X115.219 Y116.358 E58.85557
G1 X113.22 Y115.568 E59.08771
G1 X112.666 Y114.962 E59.17638
G1 X112.439 Y114.93 E59.20114
G1 X110.887 Y114.518 E59.37456
G1 X109.023 Y113.749 E59.59233
G1 X107.349 Y112.63 E59.8098
G1 X105.951 Y111.298 E60.01834
G1 X104.763 Y109.774 E60.22703
G1 X103.825 Y107.962 E60.4474
G1 X103.323 Y106.293 E60.63562
G1 X102.978 Y104.148 E60.87026
G1 X103.062 Y102.434 E61.0556
G1 X103.447 Y100.316 E61.28809
G1 X104.186 Y98.457 E61.50414
G1 X105.232 Y96.753 E61.72008
G1 X106.527 Y95.284 E61.93158
G0 F9000 X106.803 Y95.575
G1 F1800 X108.244 Y94.441 E62.12962
G1 X109.836 Y93.503 E62.32918
G1 X111.741 Y92.829 E62.54742
G1 X113.266 Y92.577 E62.71435
G1 X115.731 Y92.577 E62.98057
G1 X117.275 Y92.833 E63.1496
G1 X119.001 Y93.463 E63.34804
G1 X120.734 Y94.391 E63.56035
G1 X122.454 Y95.863 E63.80485
G1 X123.466 Y97.016 E63.97053
G1 X124.475 Y98.68 E64.1807
G1 X125.17 Y100.57 E64.39818
G1 X125.545 Y102.261 E64.58525
G1 X125.608 Y104.155 E64.78991
G1 X125.232 Y106.425 E65.03841
G1 X124.8 Y107.805 E65.19459
G1 X124.033 Y109.294 E65.37548
G1 X124.13 Y109.624 E65.41263
G1 X124.135 Y110.069 E65.46069
G1 X123.096 Y112.719 E65.7681
G1 X121.556 Y114.15 E65.99514
G1 X117.823 Y115.842 E66.43779
G1 X116.631 Y116.116 E66.56988
G1 X115.318 Y115.967 E66.71259
G1 X113.454 Y115.231 E66.92903
G1 X112.863 Y114.583 E67.02375
G1 X112.542 Y114.543 E67.05869
G1 X110.99 Y114.131 E67.23211
G1 X109.212 Y113.394 E67.43997
G1 X107.597 Y112.315 E67.64974
G1 X106.267 Y111.052 E67.84783
G1 X105.1 Y109.554 E68.05291
G1 X104.198 Y107.813 E68.26468
G1 X103.718 Y106.229 E68.44343
G1 X103.38 Y104.127 E68.67336
G1 X103.456 Y102.506 E68.84862
G1 X103.834 Y100.426 E69.07694
G1 X104.546 Y98.635 E69.2851
G1 X105.556 Y96.99 E69.49357
G1 X106.803 Y95.575 E69.69726
G0 F9000 X107.077 Y95.869
G1 F1800 X108.447 Y94.786 E69.88587
G1 X110.007 Y93.867 E70.08141
G1 X111.84 Y93.218 E70.29142
G1 X113.331 Y92.972 E70.45462
G1 X115.666 Y92.972 E70.7068
G1 X117.173 Y93.222 E70.87178
G1 X118.864 Y93.839 E71.06619
G1 X120.507 Y94.723 E71.26769
G1 X122.153 Y96.127 E71.50134
G1 X123.144 Y97.256 E71.66358
G1 X124.114 Y98.855 E71.86557
G1 X124.779 Y100.657 E72.07301
G1 X125.146 Y102.313 E72.2562
G1 X125.207 Y104.128 E72.45233
G1 X124.85 Y106.305 E72.69058
G1 X124.428 Y107.653 E72.84314
G1 X123.604 Y109.253 E73.03751
G1 X123.746 Y109.737 E73.09198
G1 X123.734 Y109.996 E73.11998
G1 X122.757 Y112.488 E73.40906
G1 X121.331 Y113.813 E73.61929
G1 X117.696 Y115.461 E74.05033
G1 X116.607 Y115.711 E74.17101
G1 X115.417 Y115.576 E74.30035
G1 X113.687 Y114.893 E74.50122
G1 X113.057 Y114.201 E74.60229
G1 X112.645 Y114.156 E74.64705
G1 X111.093 Y113.744 E74.82048
G1 X109.403 Y113.04 E75.0182
G1 X107.849 Y112.002 E75.22003
G1 X106.583 Y110.806 E75.40812
G1 X105.437 Y109.334 E75.60959
G1 X104.571 Y107.663 E75.81286
G1 X104.101 Y106.113 E75.98778
G1 X103.782 Y104.106 E76.20726
G1 X103.85 Y102.578 E76.37245
G1 X104.221 Y100.536 E76.5966
G1 X104.906 Y98.813 E76.79685
G1 X105.88 Y97.227 E76.99786
G1 X107.077 Y95.869 E77.19336
G0 F9000 X107.355 Y96.159
G1 F1800 X108.65 Y95.131 E77.37193
G1 X110.179 Y94.23 E77.5636
G1 X111.937 Y93.608 E77.765
G1 X113.396 Y93.367 E77.92471
G1 X115.601 Y93.367 E78.16285
G1 X117.071 Y93.611 E78.32378
G1 X118.727 Y94.215 E78.51415
G1 X120.279 Y95.055 E78.70474
G1 X121.852 Y96.391 E78.92763
G1 X122.82 Y97.494 E79.08612
G1 X123.753 Y99.031 E79.28031
G1 X124.388 Y100.743 E79.47752
G1 X124.747 Y102.364 E79.65683
G1 X124.806 Y104.103 E79.84475
G1 X124.468 Y106.185 E80.07255
G1 X124.056 Y107.501 E80.22148
G1 X123.175 Y109.212 E80.42932
G1 X123.362 Y109.85 E80.50112
G1 X122.418 Y112.257 E80.78036
G1 X121.106 Y113.476 E80.97377
G1 X117.57 Y115.079 E81.39307
G1 X116.582 Y115.306 E81.50256
G1 X115.516 Y115.185 E81.61842
G1 X113.92 Y114.555 E81.80373
G1 X113.249 Y113.818 E81.91138
G1 X112.748 Y113.769 E81.96574
G1 X111.196 Y113.357 E82.13917
G1 X109.594 Y112.687 E82.3267
G1 X108.1 Y111.689 E82.52074
G1 X106.858 Y110.515 E82.70532
G1 X105.775 Y109.117 E82.89631
G1 X104.944 Y107.513 E83.09141
G1 X104.484 Y105.997 E83.26251
G1 X104.184 Y104.086 E83.47142
G1 X104.25 Y102.596 E83.6325
G1 X104.606 Y100.651 E83.84605
G1 X105.266 Y98.991 E84.03898
G1 X106.202 Y97.467 E84.23214
G1 X107.355 Y96.159 E84.42045
G0 F9000 X107.633 Y96.449
G1 F1800 X108.853 Y95.476 E84.58898
G1 X110.35 Y94.594 E84.77664
G1 X112.036 Y93.997 E84.9698
G1 X113.461 Y93.762 E85.12578
G1 X115.536 Y93.762 E85.34988
G1 X116.971 Y94 E85.50698
G1 X118.537 Y94.567 E85.68685
G1 X120.054 Y95.388 E85.87314
G1 X121.551 Y96.655 E86.08495
G1 X122.496 Y97.732 E86.23969
G1 X123.391 Y99.206 E86.42593
G1 X123.997 Y100.829 E86.61304
G1 X124.348 Y102.415 E86.78847
G1 X124.405 Y104.079 E86.96829
G1 X124.086 Y106.065 E87.18553
G1 X123.684 Y107.349 E87.33083
G1 X122.929 Y108.816 E87.50902
G1 X122.712 Y109.115 E87.54892
G1 X122.96 Y109.781 E87.62568
G1 X122.079 Y112.026 E87.88614
G1 X120.881 Y113.139 E88.06274
G1 X117.443 Y114.698 E88.47044
G1 X116.558 Y114.901 E88.5685
G1 X115.615 Y114.794 E88.671
G1 X114.153 Y114.217 E88.84074
G1 X113.439 Y113.432 E88.95535
G1 X112.851 Y113.382 E89.01908
G1 X111.299 Y112.97 E89.1925
G1 X109.784 Y112.333 E89.37
G1 X108.351 Y111.376 E89.5561
G1 X107.133 Y110.224 E89.73716
G1 X106.113 Y108.9 E89.91767
G1 X105.315 Y107.36 E90.10499
G1 X104.879 Y105.935 E90.26593
G1 X104.586 Y104.066 E90.47025
G1 X104.65 Y102.614 E90.62722
G1 X104.991 Y100.765 E90.83028
G1 X105.626 Y99.169 E91.01579
G1 X106.524 Y97.707 E91.20109
G1 X107.633 Y96.449 E91.38221
G0 F9000 X107.912 Y96.738
G1 F1800 X109.056 Y95.821 E91.54056
G1 X110.522 Y94.957 E91.72433
G1 X112.133 Y94.387 E91.90889
G1 X113.526 Y94.157 E92.06137
G1 X115.471 Y94.157 E92.27143
G1 X116.872 Y94.389 E92.4248
G1 X118.401 Y94.943 E92.60044
G1 X119.825 Y95.718 E92.77553
G1 X121.25 Y96.919 E92.9768
G1 X122.172 Y97.97 E93.1278
G1 X123.029 Y99.381 E93.30609
G1 X123.622 Y100.969 E93.48916
G1 X123.949 Y102.465 E93.65454
G1 X124.004 Y104.055 E93.82637
G1 X123.704 Y105.945 E94.03304
G1 X123.312 Y107.197 E94.17473
G1 X122.573 Y108.633 E94.34915
G1 X122.25 Y109.065 E94.40741
G1 X122.551 Y109.729 E94.48614
G1 X121.74 Y111.795 E94.72585
G1 X120.656 Y112.802 E94.88564
G1 X117.317 Y114.316 E95.28159
G1 X116.533 Y114.496 E95.36846
G1 X115.714 Y114.403 E95.45749
G1 X114.386 Y113.879 E95.61167
G1 X113.627 Y113.045 E95.73346
G1 X112.953 Y112.995 E95.80645
G1 X111.454 Y112.601 E95.97384
G1 X109.974 Y111.979 E96.14722
G1 X108.602 Y111.063 E96.32539
G1 X107.408 Y109.933 E96.50293
G1 X106.451 Y108.682 E96.67304
G1 X105.688 Y107.211 E96.85201
G1 X105.262 Y105.818 E97.00933
G1 X104.988 Y104.047 E97.20288
G1 X105.05 Y102.631 E97.35595
G1 X105.376 Y100.879 E97.54841
G1 X105.986 Y99.347 E97.7265
G1 X106.846 Y97.947 E97.90395
G1 X107.912 Y96.738 E98.07803
G0 F9000 X108.192 Y97.026
G1 F1800 X109.259 Y96.166 E98.22604
G1 X110.693 Y95.321 E98.4058
G1 X112.232 Y94.776 E98.58212
G1 X113.591 Y94.552 E98.73088
G1 X115.406 Y94.552 E98.9269
G1 X116.775 Y94.779 E99.07677
G1 X118.21 Y95.294 E99.24143
G1 X119.595 Y96.048 E99.41174
G1 X120.949 Y97.183 E99.60255
G1 X121.848 Y98.208 E99.74979
G1 X122.667 Y99.556 E99.92014
G1 X123.247 Y101.109 E100.09918
G1 X123.55 Y102.513 E100.25431
G1 X123.603 Y104.032 E100.41846
G1 X123.322 Y105.825 E100.61446
G1 X122.94 Y107.045 E100.75253
G1 X122.217 Y108.45 E100.92318
G1 X121.788 Y109.013 E100.99963
G1 X122.117 Y109.74 E101.08581
G1 X121.401 Y111.564 E101.29744
G1 X120.431 Y112.465 E101.44042
G1 X117.191 Y113.934 E101.82462
G1 X116.508 Y114.091 E101.90031
G1 X115.813 Y114.012 E101.97585
G1 X114.619 Y113.541 E102.11448
G1 X113.815 Y112.658 E102.24345
G1 X113.018 Y112.599 E102.32976
G1 X111.609 Y112.232 E102.48701
G1 X110.164 Y111.625 E102.65628
G1 X108.85 Y110.747 E102.82696
G1 X107.726 Y109.69 E102.99359
G1 X106.789 Y108.465 E103.16016
G1 X106.061 Y107.062 E103.33087
G1 X105.645 Y105.701 E103.48457
